X: 14822
T: Garden Of Daisies, The
R: hornpipe
M: 4/4
K: Dmajor
fg|:a2 af gbag|fdfa gfec|dcde fdec|dedc AGFG|
AB=cA dcAG|FEFG ABcA|dcdf edce|1 d2f2 d4:|2 d2f2 d3A||
dcde fdfg|abaf defg|abaf gbag|fdec defg|
(3aaa af gb ag|fdfa gfec|dcde fdec|dedc A2 fg||

